X:1
T:Romanza
T:Romanza
T:Emilio Pujol
T:Fingered by Lee, Cheolho
T:Romanza - p2
C:E. Pujol
%%score ( 1 2 3 )
L:1/8
Q:3/8=66
M:9/8
K:E
V:1 treble-8 nm="Classical Guitar" snm="Guit."
V:2 treble-8 
V:3 treble-8 
V:1
"^Andante" !1!b3- b(!4!e'!3!d') !1!c'd'e' | b3- b(!4!c'!1!b) !1!a!3!b!4!c' | %2
 !1!g3- g3"^C.2"{/fg} !3![df]2 f | g3-"_Ⅶ" g!-(!{/!4!g}!-)!b!1!g !4!!1![df]3 | b3- b(e'd') c'd'e' | %5
 b3- b(c'b) abc' | !0!e3- e2 !0!e"^C.7"{/f!4!g} !2![df]2 b | !2!e3- e2[Q:3/8=120] z z3!dacoda! :: %8
[Q:3/8=66]"^C.7" f3- f!4!e!1!f b!4!g!3!e | (!4!g3 !1!f3) z3 | !4!g3- g(!2!^^f!3!g) !2!^a!3!b!4!c' | %11
 c'3 !1!b3 z3 |"^C.4" !4!b3- b!3!^ag !1!!-(!!3![c^^f]!-)!!3!!courtesy!^a!4!e' | %13
 !4!d'3- d'(!4!c'!2!b) (!1!^a!4!c')!3!g | !2!^^f!4!c'!3!e !3!d(c'!1!^a) (!4!bg)b |1 %15
 !3!^^f!4!g!1!^a"^C.4" g3- g2 z :|2 ^^fg^a g3 !fermata!!4!=a2 z!D.C.! |: %17
[K:G][M:6/8]O[Q:3/8=72]"^Più mosso" !1!b3- b!2!!1![fa]!4!c' | b3- b!4!e'!4!f' | %19
{/!1!g'!3!a'} g'!3!f'!1!e' !1!b!2!g!3!e |"^C.2" !4!^d3- d!4!ef | ^d3"^C.7" z z2 | %22
 !3!B!2!^df b(f!4!a) | !4!g3- g!1!b!2!g | !0!e3- e(!4!ge) | !1!=f3- f!-(!{/!4!g}!-)!ae | %26
"^C.2" !4!^d3- d3 | !-(!!3!^d!-)!f!4!b !0!e!0!G!0!B | !0!e"^Ⅻ"g"^Ⅻ"b"^Ⅻ" e'2 z :| %29
[K:E][M:9/8][Q:3/8=66]"^Tempo Ⅰ" b3- b(e'd') c'd'e' | b3- b(c'b) abc' | g3- g3{/fg} [df]2 f | %32
 g3- g{/g}bg [df]3 | b3- b(e'd') c'd'e' | b3- b(c'b) a!-(!!2!c!-)!e | %35
[Q:3/8=130] !2!!3![eg]6- [eg]3 |"^C.3" [_Be=g]6 z3 |"^C.2" [Adf]6 z3 | %38
"^C.7"[Q:3/8=80] !arpeggio![B,Adb]6 z3 |"^C.4" !3!!1!!2![GBe]6 z3 |] %40
V:2
 z !3!e!4!g !1!B3 !1!e3 | z eg B3 !2!c3 | z !1!B!2!e z Be A !2!B2 | z Be !fermata!!4!B3 !3![Bd]3 | %4
 z eg B3 e3 | z eg B3 c3 | z !3!G!0!B z !3!B2 A !3!B2 | z !3!G!1!B !4!E2 z z3 :: z A!2!d !3!B3 z3 | %9
 z A!2!d z dA !-(!!3!F!-)!D!4!B, | z !1!G!0!B !1!E3 !1!^^F3 | %11
 z !2!^^f!3!e z !4!g!3!e !-(!!2!B!-)!G!3!E | z Bd z6 | z !0!B!1!d z3 !1!c3 | x9 |1 %15
 z3 z Bd !3!G2 z :|2 z3 z Bd !arpeggio!!1!!2!!3![xBd]2 z |:[K:G][M:6/8] z !2!g!3!e !3!^d3 | %18
 z ge !1!B3 | x6 | z !3!FA z3 | z FA z !3!FA | x6 | z !2!G!1!B z z2 | z !0!B!0!G z z2 | %25
 z !1!c!2!A z z2 | z A!3!F z FA | x6 | x6 :|[K:E][M:9/8] z eg B3 e3 | z eg B3 c3 | z Be z Be A B2 | %32
 z Be B3 [Bd]3 | z eg B3 e3 | z eg B3 z3 | x9 | x9 | x9 | x9 | x9 |] %40
V:3
 E,6 A,3 | E,6 A,3 | E,3 !1!G,3 B,3 | E,3 x3 x3 | E,6 A,3 | E,6 A,3 | !1!G,3!-(!{/!1!G,} !-)!B,6 | %7
 E,3 x3 x3 :: B,6 E,3 | B,6 z3 | E,6 x3 | !1!G3 !1!E3 x3 | G,3 !2!D3 !2!E z2 | !3!G3 !1!D3 z3 | %14
 !1!^A3 !1!D3 !arpeggio!!3!!1![GBd]3 |1 !1!D3 G,3- G,2 z :|2 D3 G,3 F,2 z |:[K:G][M:6/8] E,6 | %18
 E,6 | E,6 | B,3 !2!C3 | B,3!-(!{/!1!F,} !-)!B,3 | x6 | E,3 !1!E3 | E,3 !2!E3 | A,3 !3!C3 | %26
 !2!C3 B,3 | z3 E,3 | x6 :|[K:E][M:9/8] E,6 A,3 | E,6 A,3 | E,3 G,3 B,3 | E,3 x3 x3 | E,6 A,3 | %34
 E,6 A,3 | E,6- E,3 | C6 z3 | =C6 z3 | B,6 z3 | E,6 z3 |] %40

